; generated by Slic3r 0.9.9 on 2013-04-10 at 17:30:29

; layer_height = 0.1
; perimeters = 1
; top_solid_layers = 0
; bottom_solid_layers = 5
; fill_density = 0
; perimeter_speed = 55
; infill_speed = 65
; travel_speed = 50
; nozzle_diameter = .35
; filament_diameter = 1.715
; extrusion_multiplier = .95
; perimeters extrusion width = 0.42mm
; infill extrusion width = 0.42mm
; solid infill extrusion width = 0.42mm
; top infill extrusion width = 0.42mm

G21 ; set units to millimeters
M107
G21; set mm units
G28 ;home all axis
G90; set absolute coordinates
G92 E0; reset extruder distance
M104 S200; set extruder temp and start heating
G1 Z5 F300 ;move platform down 5mm
;G1 X159 Y150 F3000 ; move to back right corner
M109 S200; wait for extruder temp to be reached
G1 X159.0 Y150.0 Z0.0 F180.0 E1.00000 ;lower nozzle to platform edge height and purge
G1 X148.0 Y150.0 Z0.0 F3600.0 ;wipe drool off nozzle on edge of platform
G1 Z.3 F200 ;move platform close to nozzle
;G1 E7; extruder anchor
G1 F3000; Set Feed rate for first move
G92 E0; reset extrusion distance
G90 ; use absolute coordinates
G92 E0
M82 ; use absolute distances for extrusion
G1 F4500.000 E-2.00000
G1 Z0.450
G92 E0
G1 X65.280 Y94.790 F3000.000
G1 Z0.300
G1 F4500.000 E2.55000
G1 X65.950 Y94.370 F2475.000 E2.58951
G1 X66.430 Y94.130 E2.61632 (this is a comment)
G1 X66.920 Y93.940 E2.64258
G1 X67.430 Y93.790 E2.66914
G1 X67.950 Y93.680 E2.69570
G1 X68.210 (here's another!) Y93.640 E2.70884
G1 X68.740 Y93.600 E2.73540
G1 X89.260 Y93.600 E3.76066
G1 X89.790 Y93.640 E3.78722
G1 X90.310 Y93.730 E3.81359
G1 X90.830 Y93.860 E3.84037
G1 X91.570 Y94.130 E3.87972
G1 X92.280 Y94.500 E3.91973
G1 X92.720 Y94.790 E3.94606
G1 X93.140 Y95.110 E3.97244
G1 X93.710 Y95.660 E4.01201
G1 X93.890 Y95.860 E4.02546
G1 X94.210 Y96.280 E4.05184
G1 X94.500 Y96.720 E4.07817
G1 X94.870 Y97.430 E4.11817
G1 X94.970 Y97.670 E4.13116
G1 X95.140 Y98.170 E4.15755
G1 X95.270 Y98.690 E4.18433
G1 X95.360 Y99.210 E4.21070
G1 X95.400 Y99.740 E4.23725
G1 X95.400 Y120.260 E5.26252
G1 X95.360 Y120.790 E5.28907
G1 X95.270 Y121.310 E5.31544
G1 X95.140 Y121.830 E5.34222
G1 X94.870 Y122.570 E5.38158
G1 X94.500 Y123.280 E5.42158
G1 X94.210 Y123.720 E5.44791
G1 X93.890 Y124.140 E5.47429
G1 X93.340 Y124.710 E5.51387
G1 X93.140 Y124.890 E5.52731
G1 X92.720 Y125.210 E5.55370
G1 X92.280 Y125.500 E5.58003
G1 X91.570 Y125.870 E5.62003
G1 X91.330 Y125.970 E5.63302
G1 X90.830 Y126.140 E5.65940
G1 X90.310 Y126.270 E5.68619
G1 X89.790 Y126.360 E5.71255
G1 X89.260 Y126.400 E5.73911
G1 X68.740 Y126.400 E6.76437
G1 X68.210 Y126.360 E6.79093
G1 X67.690 Y126.270 E6.81730
G1 X67.170 Y126.140 E6.84408
G1 X66.430 Y125.870 E6.88344
G1 X65.720 Y125.500 E6.92344
G1 X65.280 Y125.210 E6.94977
G1 X64.860 Y124.890 E6.97615
G1 X64.290 Y124.340 E7.01573
G1 X64.110 Y124.140 E7.02917
G1 X63.790 Y123.720 E7.05555
G1 X63.500 Y123.280 E7.08188
G1 X63.130 Y122.570 E7.12188
G1 X63.030 Y122.330 E7.13487
G1 X62.860 Y121.830 E7.16126
G1 X62.730 Y121.310 E7.18804
G1 X62.640 Y120.790 E7.21441
G1 X62.600 Y120.260 E7.24096
G1 X62.600 Y99.740 E8.26623
G1 X62.640 Y99.210 E8.29278
G1 X62.680 Y98.950 E8.30593
G1 X62.860 Y98.170 E8.34592
G1 X63.130 Y97.430 E8.38528
G1 X63.370 Y96.950 E8.41210
G1 X63.640 Y96.500 E8.43832
G1 X64.110 Y95.860 E8.47799
G1 X64.660 Y95.290 E8.51757
G1 X64.860 Y95.110 E8.53101
G1 X65.232 Y94.827 E8.55436
G1 F4500.000 E6.55436
G1 Z0.450
G92 E0
G1 X68.748 Y99.393 F3000.000
G1 Z0.300
G1 F4500.000 E2.55000
G1 X89.252 Y99.393 F2475.000 E3.57443
G1 X89.607 Y99.748 E3.59957
G1 X89.607 Y120.252 E4.62400
G1 X89.252 Y120.607 E4.64914
G1 X68.748 Y120.607 E5.67357
G1 X68.393 Y120.252 E5.69871
G1 X68.393 Y99.748 E6.72314
G1 X68.705 Y99.435 E6.74524
G1 X68.916 Y99.798 F3000.000
G1 X89.084 Y99.798 F2475.000 E7.75291
G1 X89.202 Y99.916 E7.76129
G1 X89.202 Y120.084 E8.76895
G1 X89.084 Y120.202 E8.77733
G1 X68.916 Y120.202 E9.78500
G1 X68.798 Y120.084 E9.79338
G1 X68.798 Y99.916 E10.80104
G1 X68.873 Y99.840 E10.80639
G1 F4500.000 E8.80639
G1 Z0.450
G92 E0
G1 X69.202 Y100.202 F3000.000
G1 Z0.300
G1 F4500.000 E2.55000
G1 X88.798 Y100.202 F2475.000 E3.52905
G1 X88.798 Y119.798 E4.50810
G1 X69.202 Y119.798 E5.48714
G1 X69.202 Y100.263 E6.46316
G1 F4500.000 E4.46316
G1 Z0.450
G92 E0
G1 X69.496 Y119.504 F3000.000
G1 Z0.300
G1 F4500.000 E2.55000
G1 X69.496 Y100.496 F2700.000 E3.51903
G1 X69.909 Y100.496 E3.54009
G1 X69.909 Y119.504 E4.50912
G1 X70.323 Y119.504 E4.53018
G1 X70.323 Y100.496 E5.49921
G1 X70.736 Y100.496 E5.52028
G1 X70.736 Y119.504 E6.48930
G1 X71.149 Y119.504 E6.51037
G1 X71.149 Y100.496 E7.47939
G1 X71.562 Y100.496 E7.50046
G1 X71.562 Y119.504 E8.46949
G1 X71.975 Y119.504 E8.49055
G1 X71.975 Y100.496 E9.45958
G1 X72.389 Y100.496 E9.48065
G1 X72.389 Y119.504 E10.44967
G1 X72.802 Y119.504 E10.47074
G1 X72.802 Y100.496 E11.43976
G1 X73.215 Y100.496 E11.46083
G1 X73.215 Y119.504 E12.42986
G1 X73.628 Y119.504 E12.45092
G1 X73.628 Y100.496 E13.41995
G1 X74.041 Y100.496 E13.44101
G1 X74.041 Y119.504 E14.41004
G1 X74.455 Y119.504 E14.43111
G1 X74.455 Y100.496 E15.40013
G1 X74.868 Y100.496 E15.42120
G1 X74.868 Y119.504 E16.39022
G1 X75.281 Y119.504 E16.41129
G1 X75.281 Y100.496 E17.38032
G1 X75.694 Y100.496 E17.40138
G1 X75.694 Y119.504 E18.37041
G1 X76.108 Y119.504 E18.39147
G1 X76.108 Y100.496 E19.36050
G1 X76.521 Y100.496 E19.38157
G1 X76.521 Y119.504 E20.35059
G1 X76.934 Y119.504 E20.37166
G1 X76.934 Y100.496 E21.34069
G1 X77.347 Y100.496 E21.36175
G1 X77.347 Y119.504 E22.33078
G1 X77.760 Y119.504 E22.35184
G1 X77.760 Y100.496 E23.32087
G1 X78.174 Y100.496 E23.34194
G1 X78.174 Y119.504 E24.31096
G1 X78.587 Y119.504 E24.33203
G1 X78.587 Y100.496 E25.30105
G1 X79.000 Y100.496 E25.32212
G1 X79.000 Y119.504 E26.29115
G1 X79.413 Y119.504 E26.31221
G1 X79.413 Y100.496 E27.28124
G1 X79.826 Y100.496 E27.30230
G1 X79.826 Y119.504 E28.27133
G1 X80.240 Y119.504 E28.29240
G1 X80.240 Y100.496 E29.26142
G1 X80.653 Y100.496 E29.28249
G1 X80.653 Y119.504 E30.25151
G1 X81.066 Y119.504 E30.27258
G1 X81.066 Y100.496 E31.24161
G1 X81.479 Y100.496 E31.26267
G1 X81.479 Y119.504 E32.23170
G1 X81.893 Y119.504 E32.25276
G1 X81.893 Y100.496 E33.22179
G1 X82.306 Y100.496 E33.24286
G1 X82.306 Y119.504 E34.21188
G1 X82.719 Y119.504 E34.23295
G1 X82.719 Y100.496 E35.20198
G1 X83.132 Y100.496 E35.22304
G1 X83.132 Y119.504 E36.19207
G1 X83.545 Y119.504 E36.21313
G1 X83.545 Y100.496 E37.18216
G1 X83.959 Y100.496 E37.20323
G1 X83.959 Y119.504 E38.17225
G1 X84.372 Y119.504 E38.19332
G1 X84.372 Y100.496 E39.16234
G1 X84.785 Y100.496 E39.18341
G1 X84.785 Y119.504 E40.15244
G1 X85.198 Y119.504 E40.17350
G1 X85.198 Y100.496 E41.14253
G1 X85.611 Y100.496 E41.16359
G1 X85.611 Y119.504 E42.13262
G1 X86.025 Y119.504 E42.15369
G1 X86.025 Y100.496 E43.12271
G1 X86.438 Y100.496 E43.14378
G1 X86.438 Y119.504 E44.11280
G1 X86.851 Y119.504 E44.13387
G1 X86.851 Y100.496 E45.10290
G1 X87.264 Y100.496 E45.12396
G1 X87.264 Y119.504 E46.09299
G1 X87.678 Y119.504 E46.11406
G1 X87.678 Y100.496 E47.08308
G1 X88.091 Y100.496 E47.10415
G1 X88.091 Y119.504 E48.07317
G1 X88.504 Y119.504 E48.09424
G1 X88.504 Y100.496 E49.06327
G1 F4500.000 E47.06327
G1 Z0.550
G92 E0
G1 X88.798 Y100.202 F3000.000
G1 Z0.400
G1 F4500.000 E2.55000
G1 X88.798 Y119.798 F3300.000 E2.87635
G1 X69.202 Y119.798 E3.20270
G1 X69.202 Y100.202 E3.52905
G1 X88.737 Y100.202 E3.85439
G1 F4500.000 E1.85439
G1 Z0.550
G92 E0
G1 X69.496 Y100.496 F3000.000
G1 Z0.400
G1 F4500.000 E2.55000
G1 X88.504 Y100.496 F3600.000 E2.87301
G1 X88.504 Y100.909 E2.88003
G1 X69.496 Y100.909 E3.20304
G1 X69.496 Y101.322 E3.21006
G1 X88.504 Y101.322 E3.53307
G1 X88.504 Y101.736 E3.54009
G1 X69.496 Y101.736 E3.86310
G1 X69.496 Y102.149 E3.87012
G1 X88.504 Y102.149 E4.19313
G1 X88.504 Y102.562 E4.20015
G1 X69.496 Y102.562 E4.52316
G1 X69.496 Y102.975 E4.53018
G1 X88.504 Y102.975 E4.85319
G1 X88.504 Y103.389 E4.86022
G1 X69.496 Y103.389 E5.18322
G1 X69.496 Y103.802 E5.19025
G1 X88.504 Y103.802 E5.51325
G1 X88.504 Y104.215 E5.52028
G1 X69.496 Y104.215 E5.84329
G1 X69.496 Y104.628 E5.85031
G1 X88.504 Y104.628 E6.17332
G1 X88.504 Y105.041 E6.18034
G1 X69.496 Y105.041 E6.50335
G1 X69.496 Y105.455 E6.51037
G1 X88.504 Y105.455 E6.83338
G1 X88.504 Y105.868 E6.84040
G1 X69.496 Y105.868 E7.16341
G1 X69.496 Y106.281 E7.17043
G1 X88.504 Y106.281 E7.49344
G1 X88.504 Y106.694 E7.50046
G1 X69.496 Y106.694 E7.82347
G1 X69.496 Y107.107 E7.83049
G1 X88.504 Y107.107 E8.15350
G1 X88.504 Y107.521 E8.16052
G1 X69.496 Y107.521 E8.48353
G1 X69.496 Y107.934 E8.49055
G1 X88.504 Y107.934 E8.81356
G1 X88.504 Y108.347 E8.82058
G1 X69.496 Y108.347 E9.14359
G1 X69.496 Y108.760 E9.15061
G1 X88.504 Y108.760 E9.47362
G1 X88.504 Y109.174 E9.48065
G1 X69.496 Y109.174 E9.80365
G1 X69.496 Y109.587 E9.81068
G1 X88.504 Y109.587 E10.13368
G1 X88.504 Y110.000 E10.14071
G1 X69.496 Y110.000 E10.46372
G1 X69.496 Y110.413 E10.47074
G1 X88.504 Y110.413 E10.79375
G1 X88.504 Y110.826 E10.80077
G1 X69.496 Y110.826 E11.12378
G1 X69.496 Y111.240 E11.13080
G1 X88.504 Y111.240 E11.45381
G1 X88.504 Y111.653 E11.46083
G1 X69.496 Y111.653 E11.78384
G1 X69.496 Y112.066 E11.79086
G1 X88.504 Y112.066 E12.11387
G1 X88.504 Y112.479 E12.12089
G1 X69.496 Y112.479 E12.44390
G1 X69.496 Y112.892 E12.45092
G1 X88.504 Y112.892 E12.77393
G1 X88.504 Y113.306 E12.78095
G1 X69.496 Y113.306 E13.10396
G1 X69.496 Y113.719 E13.11098
G1 X88.504 Y113.719 E13.43399
G1 X88.504 Y114.132 E13.44101
G1 X69.496 Y114.132 E13.76402
G1 X69.496 Y114.545 E13.77104
G1 X88.504 Y114.545 E14.09405
G1 X88.504 Y114.959 E14.10108
G1 X69.496 Y114.959 E14.42408
G1 X69.496 Y115.372 E14.43111
G1 X88.504 Y115.372 E14.75411
G1 X88.504 Y115.785 E14.76114
G1 X69.496 Y115.785 E15.08415
G1 X69.496 Y116.198 E15.09117
G1 X88.504 Y116.198 E15.41418
G1 X88.504 Y116.611 E15.42120
G1 X69.496 Y116.611 E15.74421
G1 X69.496 Y117.025 E15.75123
G1 X88.504 Y117.025 E16.07424
G1 X88.504 Y117.438 E16.08126
G1 X69.496 Y117.438 E16.40427
G1 X69.496 Y117.851 E16.41129
G1 X88.504 Y117.851 E16.73430
G1 X88.504 Y118.264 E16.74132
G1 X69.496 Y118.264 E17.06433
G1 X69.496 Y118.677 E17.07135
G1 X88.504 Y118.677 E17.39436
G1 X88.504 Y119.091 E17.40138
G1 X69.496 Y119.091 E17.72439
G1 X69.496 Y119.504 E17.73141
G1 X88.504 Y119.504 E18.05442
G1 F4500.000 E16.05442
G1 Z0.650
G92 E0
G1 X88.798 Y119.798 F3000.000
G1 Z0.500
G1 F4500.000 E2.55000
G1 X69.202 Y119.798 F3300.000 E2.87635
G1 X69.202 Y100.202 E3.20270
G1 X88.798 Y100.202 E3.52905
G1 X88.798 Y119.737 E3.85439
G1 F4500.000 E1.85439
G1 Z0.650
G92 E0
G1 X88.504 Y100.496 F3000.000
G1 Z0.500
G1 F4500.000 E2.55000
G1 X88.504 Y119.504 F3600.000 E2.87301
G1 X88.091 Y119.504 E2.88003
G1 X88.091 Y100.496 E3.20304
G1 X87.678 Y100.496 E3.21006
G1 X87.678 Y119.504 E3.53307
G1 X87.264 Y119.504 E3.54009
G1 X87.264 Y100.496 E3.86310
G1 X86.851 Y100.496 E3.87012
G1 X86.851 Y119.504 E4.19313
G1 X86.438 Y119.504 E4.20015
G1 X86.438 Y100.496 E4.52316
G1 X86.025 Y100.496 E4.53018
G1 X86.025 Y119.504 E4.85319
G1 X85.611 Y119.504 E4.86022
G1 X85.611 Y100.496 E5.18322
G1 X85.198 Y100.496 E5.19025
G1 X85.198 Y119.504 E5.51325
G1 X84.785 Y119.504 E5.52028
G1 X84.785 Y100.496 E5.84329
G1 X84.372 Y100.496 E5.85031
G1 X84.372 Y119.504 E6.17332
G1 X83.959 Y119.504 E6.18034
G1 X83.959 Y100.496 E6.50335
G1 X83.545 Y100.496 E6.51037
G1 X83.545 Y119.504 E6.83338
G1 X83.132 Y119.504 E6.84040
G1 X83.132 Y100.496 E7.16341
G1 X82.719 Y100.496 E7.17043
G1 X82.719 Y119.504 E7.49344
G1 X82.306 Y119.504 E7.50046
G1 X82.306 Y100.496 E7.82347
G1 X81.893 Y100.496 E7.83049
G1 X81.893 Y119.504 E8.15350
G1 X81.479 Y119.504 E8.16052
G1 X81.479 Y100.496 E8.48353
G1 X81.066 Y100.496 E8.49055
G1 X81.066 Y119.504 E8.81356
G1 X80.653 Y119.504 E8.82058
G1 X80.653 Y100.496 E9.14359
G1 X80.240 Y100.496 E9.15061
G1 X80.240 Y119.504 E9.47362
G1 X79.826 Y119.504 E9.48065
G1 X79.826 Y100.496 E9.80365
G1 X79.413 Y100.496 E9.81068
G1 X79.413 Y119.504 E10.13368
G1 X79.000 Y119.504 E10.14071
G1 X79.000 Y100.496 E10.46372
G1 X78.587 Y100.496 E10.47074
G1 X78.587 Y119.504 E10.79375
G1 X78.174 Y119.504 E10.80077
G1 X78.174 Y100.496 E11.12378
G1 X77.760 Y100.496 E11.13080
G1 X77.760 Y119.504 E11.45381
G1 X77.347 Y119.504 E11.46083
G1 X77.347 Y100.496 E11.78384
G1 X76.934 Y100.496 E11.79086
G1 X76.934 Y119.504 E12.11387
G1 X76.521 Y119.504 E12.12089
G1 X76.521 Y100.496 E12.44390
G1 X76.108 Y100.496 E12.45092
G1 X76.108 Y119.504 E12.77393
G1 X75.694 Y119.504 E12.78095
G1 X75.694 Y100.496 E13.10396
G1 X75.281 Y100.496 E13.11098
G1 X75.281 Y119.504 E13.43399
G1 X74.868 Y119.504 E13.44101
G1 X74.868 Y100.496 E13.76402
G1 X74.455 Y100.496 E13.77104
G1 X74.455 Y119.504 E14.09405
G1 X74.041 Y119.504 E14.10108
G1 X74.041 Y100.496 E14.42408
G1 X73.628 Y100.496 E14.43111
G1 X73.628 Y119.504 E14.75411
G1 X73.215 Y119.504 E14.76114
G1 X73.215 Y100.496 E15.08415
G1 X72.802 Y100.496 E15.09117
G1 X72.802 Y119.504 E15.41418
G1 X72.389 Y119.504 E15.42120
G1 X72.389 Y100.496 E15.74421
G1 X71.975 Y100.496 E15.75123
G1 X71.975 Y119.504 E16.07424
G1 X71.562 Y119.504 E16.08126
G1 X71.562 Y100.496 E16.40427
G1 X71.149 Y100.496 E16.41129
G1 X71.149 Y119.504 E16.73430
G1 X70.736 Y119.504 E16.74132
G1 X70.736 Y100.496 E17.06433
G1 X70.323 Y100.496 E17.07135
G1 X70.323 Y119.504 E17.39436
G1 X69.909 Y119.504 E17.40138
G1 X69.909 Y100.496 E17.72439
G1 X69.496 Y100.496 E17.73141
G1 X69.496 Y119.504 E18.05442
M106 S255
G1 F4500.000 E16.05442
G1 Z0.750
G92 E0
G1 X69.202 Y119.798 F3000.000
G1 Z0.600
G1 F4500.000 E2.55000
G1 X69.202 Y100.202 F3300.000 E2.87635
G1 X88.798 Y100.202 E3.20270
G1 X88.798 Y119.798 E3.52905
G1 X69.263 Y119.798 E3.85439
G1 F4500.000 E1.85439
G1 Z0.750
G92 E0
G1 X88.504 Y119.504 F3000.000
G1 Z0.600
G1 F4500.000 E2.55000
G1 X69.496 Y119.504 F3600.000 E2.87301
G1 X69.496 Y119.091 E2.88003
G1 X88.504 Y119.091 E3.20304
G1 X88.504 Y118.677 E3.21006
G1 X69.496 Y118.677 E3.53307
G1 X69.496 Y118.264 E3.54009
G1 X88.504 Y118.264 E3.86310
G1 X88.504 Y117.851 E3.87012
G1 X69.496 Y117.851 E4.19313
G1 X69.496 Y117.438 E4.20015
G1 X88.504 Y117.438 E4.52316
G1 X88.504 Y117.025 E4.53018
G1 X69.496 Y117.025 E4.85319
G1 X69.496 Y116.611 E4.86022
G1 X88.504 Y116.611 E5.18322
G1 X88.504 Y116.198 E5.19025
G1 X69.496 Y116.198 E5.51325
G1 X69.496 Y115.785 E5.52028
G1 X88.504 Y115.785 E5.84329
G1 X88.504 Y115.372 E5.85031
G1 X69.496 Y115.372 E6.17332
G1 X69.496 Y114.959 E6.18034
G1 X88.504 Y114.959 E6.50335
G1 X88.504 Y114.545 E6.51037
G1 X69.496 Y114.545 E6.83338
G1 X69.496 Y114.132 E6.84040
G1 X88.504 Y114.132 E7.16341
G1 X88.504 Y113.719 E7.17043
G1 X69.496 Y113.719 E7.49344
G1 X69.496 Y113.306 E7.50046
G1 X88.504 Y113.306 E7.82347
G1 X88.504 Y112.892 E7.83049
G1 X69.496 Y112.892 E8.15350
G1 X69.496 Y112.479 E8.16052
G1 X88.504 Y112.479 E8.48353
G1 X88.504 Y112.066 E8.49055
G1 X69.496 Y112.066 E8.81356
G1 X69.496 Y111.653 E8.82058
G1 X88.504 Y111.653 E9.14359
G1 X88.504 Y111.240 E9.15061
G1 X69.496 Y111.240 E9.47362
G1 X69.496 Y110.826 E9.48065
G1 X88.504 Y110.826 E9.80365
G1 X88.504 Y110.413 E9.81068
G1 X69.496 Y110.413 E10.13368
G1 X69.496 Y110.000 E10.14071
G1 X88.504 Y110.000 E10.46372
G1 X88.504 Y109.587 E10.47074
G1 X69.496 Y109.587 E10.79375
G1 X69.496 Y109.174 E10.80077
G1 X88.504 Y109.174 E11.12378
G1 X88.504 Y108.760 E11.13080
G1 X69.496 Y108.760 E11.45381
G1 X69.496 Y108.347 E11.46083
G1 X88.504 Y108.347 E11.78384
G1 X88.504 Y107.934 E11.79086
G1 X69.496 Y107.934 E12.11387
G1 X69.496 Y107.521 E12.12089
G1 X88.504 Y107.521 E12.44390
G1 X88.504 Y107.107 E12.45092
G1 X69.496 Y107.107 E12.77393
G1 X69.496 Y106.694 E12.78095
G1 X88.504 Y106.694 E13.10396
